X:186
T:Quadrille. CJF.186
R:Quadrille
S:C.J.Fox MS, 1829/33, Beverley,E.Yorks.
B:Kidson Coll.Mitchell Lib.M1805
O:England
A:East Yorkshire
Z:vmp.P J Headford 2000 & 2008
M:6/8
L:1/8
Q:3/8=120
K:D
A” $”|f2f d2d|A2A d2c|B2B e2d|cBc Ade|!
f2f d2d|A2A d2c|Bed cBc|e3 d2||!
c/d/|e2e ede|f2f fdc|B2B e2d|cBc Acd|!
e2e ede|f2f fdc|B2B e2e|” D. Capo $”A2B cde|]

